X: 1
T: Music For A Found Harmonium
R: reel
M: 4/4
L: 1/8
K: Dmaj
DE|:FDGD FDDD|FDGD FDDD|FDGD FDDD|EDCD FDDD:|
|:EDCD EDCD|FDCD FDCD|GDED CDGD|1 FDDD D2 DD:|2 FDDD D2 D=F||
K: Cmaj
|:cFEF {EF}GFEF|1 cFEF EE2 F:|2 cFEF EE2 D||
K: Fmaj
BFDF GFDF|BFDF GFDF|BFEF GEEG|BFEF GEEG|
^cGEG cGGG|^cGEG cGGG|^cGEG cGGG|^cGEG cGGG|
K: Dmaj
|:FDGD FDDD|FDGD FDDD|FDGD FDDD|EDCD FDDD:|
|:EDCD EDCD|FD=CD FDCD|GDED CDED|1 FDDD D2 DD:|2 FDDD D4||

